image/logo1.svg

<svg width="124" height="38" viewBox="0 0 124 38" fill="none" xmlns="http://www.w3.org/2000/svg">
<path d="M5.7107 12.7031C4.18104 12.7228 2.72152 13.3467 1.65172 14.4382C0.58192 15.5297 -0.0109871 16.9999 0.00282569 18.5268C-0.0212769 19.2869 0.109018 20.044 0.385862 20.7525C0.662705 21.4609 1.08037 22.1061 1.61368 22.6492C2.147 23.1923 2.78493 23.622 3.48905 23.9124C4.19317 24.2028 4.94889 24.3479 5.7107 24.339C6.47188 24.3391 7.22549 24.1882 7.9278 23.8952C8.63011 23.6022 9.26712 23.1729 9.80187 22.6322C10.3366 22.0915 10.7585 21.4502 11.0429 20.7454C11.3273 20.0407 11.4687 19.2865 11.4588 18.5268C11.468 16.9943 10.8681 15.5208 9.79059 14.4291C8.71309 13.3375 7.24592 12.7168 5.7107 12.7031ZM10.6253 18.5268C10.6478 19.183 10.5371 19.837 10.2997 20.4493C10.0623 21.0617 9.70319 21.6197 9.24401 22.0898C8.78482 22.56 8.23506 22.9325 7.62783 23.1849C7.0206 23.4373 6.36846 23.5645 5.7107 23.5587C5.05417 23.5638 4.40342 23.436 3.79777 23.1831C3.19211 22.9301 2.64412 22.5572 2.18691 22.0868C1.7297 21.6165 1.37276 21.0586 1.13766 20.4467C0.902557 19.8348 0.794174 19.1817 0.819057 18.5268C0.796433 17.8694 0.907749 17.2143 1.14626 16.6011C1.38477 15.9879 1.74551 15.4294 2.20663 14.9595C2.66775 14.4895 3.21964 14.1179 3.82888 13.8672C4.43811 13.6164 5.092 13.4917 5.75093 13.5007C6.40528 13.4987 7.05329 13.6286 7.65616 13.8825C8.25902 14.1365 8.80434 14.5092 9.25946 14.9785C9.71458 15.4478 10.0701 16.004 10.3048 16.6137C10.5395 17.2234 10.6485 17.8741 10.6253 18.5268Z" fill="white"/>
<path d="M19.5464 18.3257C19.8385 18.0087 20.063 17.6356 20.2063 17.2292C20.3496 16.8229 20.4086 16.3917 20.3798 15.9618C20.3453 13.9594 18.9888 12.7144 16.839 12.7144H13.5684V24.3445H14.4018V19.2782H15.9193L19.5981 23.983L19.8855 24.3445H20.9316L16.908 19.2495C17.8739 19.2928 18.8192 18.9619 19.5464 18.3257ZM14.3731 13.5119H16.8448C18.5692 13.5119 19.5866 14.4299 19.5866 15.9676C19.5866 17.6889 18.6726 18.4864 16.7815 18.4864H14.4018L14.3731 13.5119Z" fill="white"/>
<path d="M22.3398 13.5179H25.1852V24.23H25.9957V13.5179H28.841V12.7031H22.3398V13.5179Z" fill="white"/>
<path d="M30.7842 24.3445H36.3254V23.5183H31.6119V18.9454H36.2622V18.1135H31.6119V13.5406H36.3254V12.7144H30.7842V24.3445Z" fill="white"/>
<path d="M56.2309 12.7949V12.7031H55.1043L50.9082 24.339H51.8107L53.2649 20.1333H58.0129L59.5361 24.339H60.4328C60.4328 24.339 58.2773 18.5153 56.2309 12.7949ZM57.7599 19.3702H53.5638L55.6389 13.5408L57.7599 19.3702Z" fill="white"/>
<path d="M88.2366 18.3257C88.535 18.0118 88.7655 17.6399 88.9139 17.2333C89.0622 16.8266 89.1251 16.3938 89.0988 15.9618C89.0988 13.9594 87.7135 12.7144 85.5579 12.7144H82.27V24.3445H83.0977V19.2782H84.6152L88.5814 24.3445H89.6104L85.6212 19.2495C86.5792 19.2869 87.5152 18.9563 88.2366 18.3257ZM85.4487 18.4864H83.069V13.5119H85.512C87.2364 13.5119 88.2595 14.4299 88.2595 15.9676C88.2595 17.6602 87.3398 18.4864 85.4487 18.4864Z" fill="white"/>
<path d="M97.5251 12.7031C95.995 12.7213 94.5346 13.3447 93.4645 14.4365C92.3944 15.5284 91.8019 16.9994 91.8173 18.5268C91.7932 19.2869 91.9235 20.044 92.2003 20.7525C92.4772 21.4609 92.8948 22.1061 93.4281 22.6492C93.9614 23.1923 94.5994 23.622 95.3035 23.9124C96.0076 24.2028 96.7633 24.3479 97.5251 24.339C98.2863 24.3391 99.0399 24.1882 99.7422 23.8952C100.445 23.6022 101.082 23.1729 101.616 22.6322C102.151 22.0915 102.573 21.4502 102.857 20.7454C103.142 20.0407 103.283 19.2865 103.273 18.5268C103.282 16.9943 102.682 15.5208 101.605 14.4291C100.527 13.3375 99.0603 12.7168 97.5251 12.7031ZM102.434 18.5268C102.434 19.8248 101.917 21.0697 100.998 21.9875C100.078 22.9053 98.8313 23.421 97.5309 23.421C96.2305 23.421 94.9834 22.9053 94.0638 21.9875C93.1443 21.0697 92.6278 19.8248 92.6278 18.5268C92.6278 17.2288 93.1443 15.9839 94.0638 15.0661C94.9834 14.1483 96.2305 13.6326 97.5309 13.6326C98.8313 13.6326 100.078 14.1483 100.998 15.0661C101.917 15.9839 102.434 17.2288 102.434 18.5268Z" fill="white"/>
<path d="M112.528 21.1085C112.528 22.7093 111.183 23.547 109.849 23.547C108.516 23.547 107.182 22.7093 107.182 21.1085V12.7144H106.343V21.1085C106.343 23.3347 108.153 24.3445 109.838 24.3445C111.522 24.3445 113.344 23.2314 113.344 21.1085V12.7144H112.516L112.528 21.1085Z" fill="white"/>
<path d="M119.563 12.7033H116.477V24.3392H117.264V19.6515H119.563C120.023 19.6706 120.483 19.595 120.912 19.4293C121.342 19.2637 121.733 19.0115 122.06 18.6886C122.388 18.3657 122.646 17.979 122.818 17.5524C122.989 17.1258 123.071 16.6685 123.058 16.209C123.072 15.7462 122.992 15.2854 122.821 14.8548C122.651 14.4242 122.394 14.0328 122.067 13.7046C121.74 13.3764 121.349 13.1184 120.919 12.9462C120.488 12.774 120.027 12.6913 119.563 12.7033ZM122.242 16.2549C122.253 16.6055 122.191 16.9547 122.059 17.28C121.927 17.6053 121.729 17.8996 121.477 18.1441C121.225 18.3887 120.924 18.5781 120.595 18.7004C120.266 18.8226 119.914 18.8749 119.563 18.854H117.264V13.4721H119.563C119.922 13.4757 120.276 13.5511 120.605 13.6939C120.934 13.8368 121.231 14.0441 121.478 14.3037C121.725 14.5632 121.918 14.8697 122.044 15.2048C122.17 15.54 122.228 15.8971 122.213 16.2549H122.242Z" fill="white"/>
<path d="M43.3381 18.7851V19.5999H48.408C48.2505 20.7017 47.6974 21.7089 46.8514 22.434C46.0055 23.1591 44.9244 23.5528 43.8095 23.5416C42.5029 23.5204 41.2577 22.9843 40.3456 22.0503C39.4335 21.1162 38.9285 19.8599 38.9408 18.5556C38.9383 17.7038 39.1469 16.8646 39.5481 16.1128C39.9492 15.361 40.5305 14.7199 41.24 14.2467C41.596 14.0167 41.9831 13.839 42.3897 13.7188C42.4269 13.7039 42.4654 13.6924 42.5046 13.6844C42.6691 13.6387 42.8361 13.6023 43.0047 13.5754L43.1714 13.5467C43.3905 13.5165 43.6113 13.5012 43.8325 13.5008C44.0727 13.5011 44.3127 13.5164 44.551 13.5467H44.7234C44.9466 13.5776 45.1675 13.6236 45.3844 13.6844C45.6007 13.7472 45.812 13.8259 46.0167 13.9196L46.1317 13.9713C46.3314 14.0676 46.5236 14.1788 46.7065 14.304L46.902 14.4475C47.0227 14.5393 47.1376 14.6368 47.2526 14.7401C47.3732 14.8471 47.4883 14.9601 47.5975 15.0786H48.6379C48.5034 14.8867 48.3555 14.7046 48.1953 14.5335L48.1033 14.4417C47.937 14.2687 47.7604 14.1059 47.5745 13.954L47.4825 13.8795C47.2996 13.7335 47.1076 13.5994 46.9077 13.4778L46.7008 13.3573C46.6714 13.338 46.6406 13.3207 46.6088 13.3057C46.4224 13.2103 46.2304 13.126 46.034 13.0532L45.942 13.0246C45.7676 12.9608 45.589 12.9091 45.4074 12.8696L45.2637 12.8352C45.0896 12.7949 44.9129 12.7662 44.7349 12.7491H44.5682C44.3383 12.7491 44.0969 12.709 43.8497 12.709C43.6192 12.7106 43.389 12.724 43.1599 12.7491H43.0392C42.846 12.7715 42.6542 12.8041 42.4644 12.8467H42.3954C42.2009 12.8963 42.0091 12.9556 41.8206 13.0246C41.6231 13.0945 41.4309 13.1789 41.2458 13.277C40.2963 13.7835 39.5034 14.539 38.9523 15.4621C38.4013 16.3852 38.1131 17.4409 38.1188 18.5155C38.1074 19.2709 38.2456 20.0211 38.5254 20.723C38.8052 21.425 39.2212 22.0649 39.7494 22.606C40.2776 23.1471 40.9076 23.5787 41.6034 23.8761C42.2991 24.1736 43.0469 24.3309 43.8037 24.3391C44.522 24.3578 45.2367 24.2312 45.9047 23.9667C46.5726 23.7023 47.1801 23.3057 47.6903 22.8006C48.2006 22.2956 48.6031 21.6927 48.8736 21.0282C49.1442 20.3637 49.2771 19.6514 49.2644 18.9343V18.7966L43.3381 18.7851Z" fill="white"/>
<path d="M74.1536 18.7847V19.5994H79.2235C79.066 20.7013 78.5129 21.7085 77.6669 22.4336C76.821 23.1587 75.74 23.5523 74.625 23.5411C73.8485 23.5233 73.0868 23.3262 72.3995 22.9653C71.7121 22.6045 71.1178 22.0896 70.6631 21.4611C70.2085 20.8326 69.9058 20.1076 69.7789 19.3428C69.6519 18.578 69.7041 17.7942 69.9314 17.053C70.1586 16.3117 70.5548 15.633 71.0888 15.0701C71.6228 14.5072 72.2801 14.0754 73.0093 13.8085C73.7384 13.5417 74.5196 13.447 75.2916 13.5318C76.0635 13.6167 76.8053 13.8789 77.4588 14.2979C77.6163 14.4043 77.7679 14.5192 77.9129 14.6421C78.0755 14.7795 78.2273 14.9291 78.367 15.0896H79.4074C79.2701 14.8892 79.1203 14.6976 78.959 14.5159L78.8728 14.4241L78.7636 14.3208C78.6601 14.2175 78.5624 14.1142 78.4532 14.0224C78.344 13.9306 78.1428 13.77 77.9819 13.6552L77.9186 13.6151C77.7567 13.5047 77.5878 13.405 77.4128 13.3167H77.3783C76.5164 12.8893 75.5643 12.6748 74.602 12.6913C73.8403 12.6957 73.087 12.8512 72.386 13.1487C71.685 13.4463 71.0503 13.8799 70.5187 14.4244C69.987 14.969 69.5691 15.6136 69.2893 16.3207C69.0094 17.0279 68.8731 17.7835 68.8884 18.5437C68.8823 19.2981 69.0254 20.0464 69.3094 20.7455C69.5934 21.4447 70.0127 22.0811 70.5434 22.6183C71.0741 23.1555 71.7058 23.583 72.4022 23.8762C73.0986 24.1694 73.8461 24.3227 74.602 24.3272C75.3213 24.346 76.0369 24.2189 76.7057 23.9538C77.3744 23.6887 77.9824 23.291 78.4928 22.7847C79.0032 22.2785 79.4055 21.6742 79.6753 21.0083C79.9451 20.3425 80.0769 19.629 80.0627 18.9109V18.7732L74.1536 18.7847Z" fill="white"/>
<path d="M118.799 0H114.557H110.315H106.073H101.831H97.5829H93.3408H89.0987H84.8566H80.6145H76.3724H72.1303H67.8882H63.6461H59.4039H55.1561H50.914H46.6719H42.4298H38.1877H33.9455H29.7034H25.4613H21.2192H16.9714H12.7293H8.48715H4.24504H0.00292969V4.23436V8.46872H4.24504V4.23436H8.48715H12.7293H16.9714H21.2192H25.4613H29.7034H33.9455H38.1877H42.4298H46.6719H50.914H55.1561H59.4039H63.6461H67.8882H72.1303H76.3724H80.6145H84.8566H89.0987H93.3408H97.5829H101.831H106.073H110.315H114.557H118.799V8.46872H123.041V4.23436V0H118.799Z" fill="#E03D3B"/>
<path d="M4.24504 37.042H8.48714H12.7292H16.9714H21.2192H25.4613H29.7034H33.9455H38.1876H42.4297H46.6718H50.914H55.1561H59.4039H63.646H67.8881H72.1302H76.3723H80.6144H84.8566H89.0987H93.3408H97.5829H101.831H106.073H110.315H114.557H118.799H123.041V32.8076V28.5732H118.799V32.8076H114.557H110.315H106.073H101.831H97.5829H93.3408H89.0987H84.8566H80.6144H76.3723H72.1302H67.8881H63.646H59.4039H55.1561H50.914H46.6718H42.4297H38.1876H33.9455H29.7034H25.4613H21.2192H16.9714H12.7292H8.48714H4.24504V28.5732H0.00292969V32.8076V37.042H4.24504Z" fill="#BBBBBB"/>
</svg>

<?xml version="1.0" encoding="UTF-8" standalone="no"?>
<svg width="124" xmlns="http://www.w3.org/2000/svg" viewBox="0 0 124 38" height="38">
 <path d="m5.7107 12.703c-1.5297 0.02-2.9892 0.644-4.059 1.735-1.0698 1.092-1.6627 2.562-1.6489 4.089-0.024077 0.76 0.10622 1.517 0.38306 2.225 0.27684 0.709 0.69454 1.354 1.2278 1.897 0.5333 0.543 1.1712 0.973 1.8753 1.263 0.7042 0.291 1.4599 0.436 2.2217 0.427 0.7612 0 1.5148-0.151 2.2171-0.444s1.3393-0.722 1.8741-1.263c0.5351-0.54 0.9561-1.182 1.2411-1.887 0.284-0.704 0.426-1.459 0.416-2.218 0.009-1.533-0.591-3.006-1.6684-4.098-1.0775-1.091-2.5447-1.712-4.0799-1.726zm4.9143 5.824c0.023 0.656-0.088 1.31-0.325 1.922-0.238 0.613-0.5968 1.171-1.056 1.641s-1.0089 0.842-1.6162 1.095c-0.6072 0.252-1.2593 0.379-1.9171 0.374-0.6565 0.005-1.3073-0.123-1.9129-0.376-0.6057-0.253-1.1537-0.626-1.6109-1.096-0.4572-0.471-0.8141-1.028-1.0492-1.64-0.23514-0.612-0.34353-1.265-0.31864-1.92-0.02263-0.658 0.08869-1.313 0.32724-1.926 0.2385-0.613 0.5992-1.172 1.0603-1.641 0.4612-0.47 1.013-0.842 1.6223-1.093 0.6092-0.251 1.2631-0.375 1.922-0.366 0.6544-0.002 1.3024 0.128 1.9053 0.381 0.6028 0.254 1.1481 0.627 1.6033 1.096 0.4551 0.47 0.8105 1.026 1.0455 1.636 0.235 0.609 0.343 1.26 0.32 1.913z" fill="#fff"/>
 <path d="m19.546 18.326c0.292-0.317 0.517-0.69 0.66-1.097 0.144-0.406 0.203-0.837 0.174-1.267-0.035-2.003-1.391-3.248-3.541-3.248h-3.271v11.63h0.834v-5.066h1.517l3.679 4.705 0.288 0.361h1.046l-4.024-5.094c0.966 0.043 1.911-0.288 2.638-0.924zm-5.173-4.814h2.472c1.724 0 2.742 0.918 2.742 2.456 0 1.721-0.914 2.518-2.805 2.518h-2.38l-0.029-4.974z" fill="#fff"/>
 <path d="m22.34 13.518h2.845v10.712h0.811v-10.712h2.845v-0.815h-6.501v0.815z" fill="#fff"/>
 <path d="m30.784 24.344h5.541v-0.826h-4.713v-4.573h4.65v-0.831h-4.65v-4.573h4.713v-0.827h-5.541v11.63z" fill="#fff"/>
 <path d="m56.231 12.795v-0.092h-1.127l-4.196 11.636h0.903l1.454-4.206h4.748l1.523 4.206h0.897s-2.156-5.824-4.202-11.544zm1.529 6.575h-4.196l2.075-5.829 2.121 5.829z" fill="#fff"/>
 <path d="m88.237 18.326c0.298-0.314 0.529-0.686 0.677-1.093 0.148-0.406 0.211-0.839 0.185-1.271 0-2.003-1.385-3.248-3.541-3.248h-3.288v11.63h0.828v-5.066h1.517l3.966 5.066h1.029l-3.989-5.094c0.958 0.037 1.894-0.294 2.616-0.924zm-2.788 0.16h-2.38v-4.974h2.443c1.724 0 2.748 0.918 2.748 2.456 0 1.692-0.92 2.518-2.811 2.518z" fill="#fff"/>
 <path d="m97.525 12.703c-1.53 0.018-2.99 0.642-4.061 1.733-1.07 1.092-1.662 2.563-1.647 4.091-0.024 0.76 0.107 1.517 0.383 2.225 0.277 0.709 0.695 1.354 1.228 1.897s1.171 0.973 1.876 1.263c0.704 0.291 1.459 0.436 2.221 0.427 0.761 0 1.515-0.151 2.217-0.444 0.698-0.293 1.338-0.722 1.878-1.263 0.53-0.54 0.95-1.182 1.24-1.887 0.28-0.704 0.42-1.459 0.41-2.218 0.01-1.533-0.59-3.006-1.67-4.098-1.07-1.091-2.54-1.712-4.075-1.726zm4.905 5.824c0 1.298-0.51 2.543-1.43 3.461-0.92 0.917-2.169 1.433-3.469 1.433-1.301 0-2.548-0.516-3.467-1.433-0.92-0.918-1.436-2.163-1.436-3.461s0.516-2.543 1.436-3.461c0.919-0.918 2.166-1.433 3.467-1.433 1.3 0 2.549 0.515 3.469 1.433s1.43 2.163 1.43 3.461z" fill="#fff"/>
 <path d="m112.53 21.108c0 1.601-1.35 2.439-2.68 2.439s-2.67-0.838-2.67-2.439v-8.394h-0.84v8.394c0 2.227 1.81 3.236 3.5 3.236 1.68 0 3.5-1.113 3.5-3.236v-8.394h-0.82l0.01 8.394z" fill="#fff"/>
 <path d="m119.56 12.703h-3.08v11.636h0.78v-4.687h2.3c0.46 0.019 0.92-0.057 1.35-0.223 0.43-0.165 0.82-0.417 1.15-0.74s0.59-0.71 0.76-1.137c0.17-0.426 0.25-0.884 0.24-1.343 0.01-0.463-0.07-0.924-0.24-1.354-0.17-0.431-0.43-0.822-0.75-1.15-0.33-0.329-0.72-0.587-1.15-0.759s-0.89-0.255-1.36-0.243zm2.68 3.552c0.01 0.351-0.05 0.7-0.18 1.025s-0.33 0.62-0.58 0.864c-0.26 0.245-0.56 0.434-0.88 0.556-0.33 0.123-0.69 0.175-1.04 0.154h-2.3v-5.382h2.3c0.36 0.004 0.72 0.079 1.04 0.222 0.33 0.143 0.63 0.35 0.88 0.61 0.24 0.259 0.44 0.566 0.56 0.901 0.13 0.335 0.19 0.692 0.17 1.05h0.03z" fill="#fff"/>
 <path d="m43.338 18.785v0.815h5.07c-0.158 1.102-0.711 2.109-1.557 2.834-0.845 0.725-1.927 1.119-3.041 1.108-1.307-0.022-2.552-0.558-3.464-1.492s-1.418-2.19-1.405-3.494c-0.003-0.852 0.206-1.691 0.607-2.443s0.982-1.393 1.692-1.866c0.356-0.23 0.743-0.408 1.15-0.528 0.037-0.015 0.075-0.027 0.115-0.035 0.164-0.045 0.331-0.082 0.5-0.109l0.166-0.028c0.219-0.031 0.44-0.046 0.661-0.046 0.241 0 0.481 0.015 0.719 0.046h0.172c0.224 0.031 0.445 0.077 0.661 0.137 0.217 0.063 0.428 0.142 0.633 0.236l0.115 0.051c0.199 0.097 0.392 0.208 0.574 0.333l0.196 0.144c0.121 0.091 0.236 0.189 0.351 0.292 0.12 0.107 0.235 0.22 0.345 0.339h1.04c-0.135-0.192-0.282-0.374-0.443-0.545l-0.092-0.092c-0.166-0.173-0.343-0.336-0.529-0.488l-0.092-0.074c-0.182-0.146-0.374-0.281-0.574-0.402l-0.207-0.121c-0.03-0.019-0.06-0.036-0.092-0.051-0.187-0.096-0.379-0.18-0.575-0.253l-0.092-0.028c-0.174-0.064-0.353-0.116-0.535-0.155l-0.143-0.035c-0.174-0.04-0.351-0.069-0.529-0.086h-0.167c-0.23 0-0.471-0.04-0.718-0.04-0.231 0.002-0.461 0.015-0.69 0.04h-0.121c-0.193 0.023-0.385 0.055-0.575 0.098h-0.069c-0.194 0.049-0.386 0.109-0.574 0.178-0.198 0.069-0.39 0.154-0.575 0.252-0.95 0.507-1.743 1.262-2.294 2.185s-0.839 1.979-0.833 3.054c-0.012 0.755 0.127 1.505 0.406 2.207 0.28 0.702 0.696 1.342 1.224 1.883 0.529 0.541 1.159 0.973 1.854 1.27 0.696 0.298 1.444 0.455 2.201 0.463 0.718 0.019 1.433-0.108 2.101-0.372 0.668-0.265 1.275-0.661 1.785-1.166 0.511-0.505 0.913-1.108 1.184-1.773 0.27-0.664 0.403-1.377 0.39-2.094v-0.137l-5.926-0.012z" fill="#fff"/>
 <path d="m74.154 18.785v0.814h5.07c-0.158 1.102-0.711 2.109-1.557 2.835-0.846 0.725-1.927 1.118-3.042 1.107-0.777-0.018-1.538-0.215-2.225-0.576-0.688-0.361-1.282-0.875-1.737-1.504-0.455-0.628-0.757-1.353-0.884-2.118s-0.075-1.549 0.152-2.29c0.228-0.741 0.624-1.42 1.158-1.983s1.191-0.995 1.92-1.262c0.729-0.266 1.511-0.361 2.283-0.276s1.513 0.347 2.167 0.766c0.157 0.106 0.309 0.221 0.454 0.344 0.163 0.138 0.314 0.287 0.454 0.448h1.04c-0.137-0.201-0.287-0.392-0.448-0.574l-0.086-0.092-0.109-0.103c-0.104-0.103-0.202-0.207-0.311-0.299-0.109-0.091-0.31-0.252-0.471-0.367l-0.063-0.04c-0.162-0.11-0.331-0.21-0.506-0.298h-0.035c-0.862-0.428-1.814-0.642-2.776-0.626-0.762 0.005-1.515 0.16-2.216 0.458-0.701 0.297-1.336 0.731-1.867 1.275-0.532 0.545-0.95 1.19-1.23 1.897s-0.416 1.463-0.401 2.223c-0.006 0.754 0.137 1.502 0.421 2.202 0.284 0.699 0.704 1.335 1.234 1.872 0.531 0.538 1.163 0.965 1.859 1.258 0.697 0.293 1.444 0.447 2.2 0.451 0.719 0.019 1.435-0.108 2.104-0.373 0.668-0.265 1.276-0.663 1.787-1.169 0.51-0.507 0.913-1.111 1.182-1.777 0.27-0.666 0.402-1.379 0.388-2.097v-0.138l-5.909 0.012z" fill="#fff"/>
 <path d="m118.8 0h-118.79v8.4687h4.2421v-4.2343h114.55v4.2343h4.24v-8.4687h-4.24z" fill="#E03D3B"/>
 <path d="m4.245 37.042h118.79v-8.469h-4.24v4.235h-114.55v-4.235h-4.2421v8.469h4.2421z" fill="#bbb"/>
</svg>
